assets/Soap/Flat/soap_flat.svg

<svg width="32" height="32" viewBox="0 0 32 32" fill="none" xmlns="http://www.w3.org/2000/svg">
<path d="M14.1421 3.83326C16.4852 1.49011 20.2842 1.49011 22.6274 3.83326L28.2842 9.49011C30.6274 11.8333 30.6274 15.6322 28.2842 17.9754L18.3847 27.8749C16.0416 30.218 12.2426 30.218 9.89944 27.8749L4.24259 22.218C1.89944 19.8749 1.89944 16.0759 4.24259 13.7328L6.49629 10.7077L9.3721 8.60324L14.1421 3.83326Z" fill="#FF6DC6"/>
<path d="M25.9203 13.1924C26.3108 13.5829 26.3108 14.2161 25.9203 14.6066L14.6065 25.9203C14.216 26.3108 13.5829 26.3108 13.1923 25.9203L6.12126 18.8492C5.73074 18.4587 5.73074 17.8256 6.12126 17.435L17.435 6.12132C17.8255 5.7308 18.4587 5.7308 18.8492 6.12132L25.9203 13.1924ZM19.5563 5.41422C18.7752 4.63317 17.5089 4.63317 16.7279 5.41422L5.41416 16.7279C4.63311 17.509 4.63311 18.7753 5.41416 19.5564L12.4852 26.6274C13.2663 27.4085 14.5326 27.4085 15.3137 26.6274L26.6274 15.3137C27.4084 14.5327 27.4084 13.2663 26.6274 12.4853L19.5563 5.41422Z" fill="#FFB2FF"/>
<path d="M4.5 7C5.32843 7 6 6.32843 6 5.5C6 4.67157 5.32843 4 4.5 4C3.67157 4 3 4.67157 3 5.5C3 6.32843 3.67157 7 4.5 7Z" fill="#F3EEF8"/>
<path d="M9.40182 8.5735C9.04092 8.2188 8.54601 8 8 8C6.89543 8 6 8.89543 6 10C6 10.546 6.2188 11.0409 6.5735 11.4018L9.40182 8.5735Z" fill="#F3EEF8"/>
<path d="M24 26.5C24 27.8807 22.8807 29 21.5 29C20.1193 29 19 27.8807 19 26.5C19 25.1193 20.1193 24 21.5 24C22.8807 24 24 25.1193 24 26.5Z" fill="#F3EEF8"/>
<path d="M5.5 17C7.433 17 9 15.433 9 13.5C9 11.567 7.433 10 5.5 10C3.567 10 2 11.567 2 13.5C2 15.433 3.567 17 5.5 17Z" fill="#E1D8EC"/>
<path d="M25.5 27C27.9853 27 30 24.9853 30 22.5C30 20.0147 27.9853 18 25.5 18C23.0147 18 21 20.0147 21 22.5C21 24.9853 23.0147 27 25.5 27Z" fill="#E1D8EC"/>
</svg>

<svg xmlns="http://www.w3.org/2000/svg" width="32" height="32" fill="none"><path fill="#FF6DC6" d="M14.142 3.833a6 6 0 0 1 8.485 0l5.657 5.657a6 6 0 0 1 0 8.485l-9.9 9.9a6 6 0 0 1-8.485 0l-5.656-5.657a6 6 0 0 1 0-8.485l2.253-3.025 2.876-2.105 4.77-4.77Z"/><path fill="#FFB2FF" d="M25.92 13.192a1 1 0 0 1 0 1.415L14.606 25.92a1 1 0 0 1-1.414 0l-7.07-7.07a1 1 0 0 1 0-1.415L17.434 6.121a1 1 0 0 1 1.414 0l7.071 7.071Zm-6.364-7.778a2 2 0 0 0-2.828 0L5.414 16.728a2 2 0 0 0 0 2.828l7.071 7.071a2 2 0 0 0 2.829 0l11.313-11.313a2 2 0 0 0 0-2.829l-7.07-7.07Z"/><path fill="#F3EEF8" d="M4.5 7a1.5 1.5 0 1 0 0-3 1.5 1.5 0 0 0 0 3ZM9.402 8.573a2 2 0 0 0-2.828 2.828l2.828-2.828ZM24 26.5a2.5 2.5 0 1 1-5 0 2.5 2.5 0 0 1 5 0Z"/><path fill="#E1D8EC" d="M5.5 17a3.5 3.5 0 1 0 0-7 3.5 3.5 0 0 0 0 7ZM25.5 27a4.5 4.5 0 1 0 0-9 4.5 4.5 0 0 0 0 9Z"/></svg>
